X: 139034
Q: "Irish Jig."
M: 6/8
L: 1/8
K: D
|:\
def ddB | AFA AFA | def ddA | Bee edB |\
def ddB | AFA AFA | gfe fdB | AFE EFA :|
|:\


